X: 15261
T: Girl That I Love, The
R: jig
M: 6/8
K: Gmajor
g|fed cAG|cAA A2g|f2d cAF|AGG G2g|
fed cAA|cde eag|fed cAF|AGG G2||
d|e/2f/2gg ged|egg g2d|e/2f/2gg ged|ea^g a2g|
e/2f/2gg ged|cde eag|fed cAF|AGG G2||

